X: 46
T:Missa Veni sancte spiritus / Kyrie
N: Derived from Jos0406a-Missa_Veni_sancte_spiritus-Kyrie.krn
C: Josquin des Prez
%%abc-version 2.0
%%abcx-abcm2ps-target-version 5.9.1 (29 Sep 2008)
%%abc-creator hum2abc beta
%%abcx-conversion-date 2019/02/12 16:15:40
%%abc-edited-by Jesse Rodin
%%abc-edited-by Victoria Chang 2011/04/27
%%abcx-initial-encoding-date 2011/04/27/
%%humdrum-veritas 2940018945
%%humdrum-veritas-data 2252215236
%%linebreak <none>
%%barnumbers 0
L: 1/4
M: 2/1
Q: 1/2=120
V: 1 clef=treble
V: 2 clef=treble-8
V: 3 clef=treble-8
V: 4 clef=treble-8
V: 5 clef=bass
K: C
[V:1] G8- | 
[V:2] G6A2 | 
[V:3] z8 | 
[V:4] G6F2 | 
[V:5] z8 | 
[V:1] G8 | 
[V:2] B4c4- | 
[V:3] z8 | 
[V:4] E2D2C4- | 
[V:5] z8 | 
[V:1] E4F4- | 
[V:2] c2A2A4 | 
[V:3] z8 | 
[V:4] C4D4- | 
[V:5] z8 | 
[V:1] F2D2D4 | 
[V:2] z2B4G2 | 
[V:3] z8 | 
[V:4] D4G4 | 
[V:5] z8 | 
[V:1] F3EFGA2- | 
[V:2] A2d4c2 | 
[V:3] z8 | 
[V:4] F2D3EF2- | 
[V:5] z8 | 
[V:1] A2G4^F2 | 
[V:2] d2B2A4 | 
[V:3] z8 | 
[V:4] F2G2D4 | 
[V:5] z8 | 
[V:1] G6F2 | 
[V:2] B8 | 
[V:3] G8- | 
[V:4] z4D4 | 
[V:5] G,,6A,,B,, | 
[V:1] E4D4 | 
[V:2] G2c4B2 | 
[V:3] G8 | 
[V:4] E2C2G4 | 
[V:5] C,4G,,4 | 
[V:1] C8 | 
[V:2] c4A4 | 
[V:3] E4F4- | 
[V:4] C8 | 
[V:5] A,,8 | 
[V:1] z8 | 
[V:2] A8- | 
[V:3] F2D2D4 | 
[V:4] F8 | 
[V:5] D,3E,F,G,A,2- | 
[V:1] z8 | 
[V:2] A8 | 
[V:3] F3EFGA2- | 
[V:4] D4z2E2 | 
[V:5] A,2D,4C,2 | 
[V:1] z2G2A2c2 | 
[V:2] z4z2A2 | 
[V:3] AGG4^F2 | 
[V:4] F2D4C2 | 
[V:5] D,2B,,2A,,4 | 
[V:1] B2G3ABc | 
[V:2] B3cd4- | 
[V:3] G8 | 
[V:4] D8 | 
[V:5] G,,8 | 
[V:1] B2A4GF | 
[V:2] d2cBA2B2 | 
[V:3] z8 | 
[V:4] F8 | 
[V:5] D,8 | 
[V:1] E8 | 
[V:2] c4g4- | 
[V:3] G8- | 
[V:4] G2c4BA | 
[V:5] C,4E,4- | 
[V:1] z4G4 | 
[V:2] g2fed4 | 
[V:3] G8 | 
[V:4] B4z4 | 
[V:5] E,2D,C,B,,4 | 
[V:1] A8- | 
[V:2] c6d2 | 
[V:3] A8- | 
[V:4] e8- | 
[V:5] A,,6B,,2 | 
[V:1] A4F4 | 
[V:2] e4f4 | 
[V:3] A8 | 
[V:4] e4d2d2- | 
[V:5] C,4D,4 | 
[V:1] G6A2 | 
[V:2] g4e4 | 
[V:3] G8 | 
[V:4] dcBAG4 | 
[V:5] G,,2E,3D,C,2 | 
[V:1] B2c3BB2 | 
[V:2] d2c2d2g2- | 
[V:3] G8 | 
[V:4] z2c3B/A/B2 | 
[V:5] B,,2C,2G,,4 | 
[V:1] A3G/F/G4 | 
[V:2] g2f2g4 | 
[V:3] z8 | 
[V:4] c4d4- | 
[V:5] A,,4G,,4 | 
[V:1] F8 | 
[V:2] f8- | 
[V:3] z8 | 
[V:4] d2cBA4- | 
[V:5] D,8 | 
[V:1] z4A4 | 
[V:2] f8 | 
[V:3] A8 | 
[V:4] A4D4 | 
[V:5] F,8 | 
[V:1] G3FG2A2 | 
[V:2] z2e3dcA | 
[V:3] c8 | 
[V:4] E4C4 | 
[V:5] C,3D,E,2F,2- | 
[V:1] G4F4 | 
[V:2] B4ABcd | 
[V:3] G4A4- | 
[V:4] z8 | 
[V:5] F,2E,2F,3E,/D,/ | 
[V:1] z2F2G4 | 
[V:2] e2d2B2c2 | 
[V:3] A4G4 | 
[V:4] z8 | 
[V:5] C,2D,2E,4 | 
[V:1] A2F4E2 | 
[V:2] z2d4c2 | 
[V:3] F3GABc2 | 
[V:4] z2F2D2E2 | 
[V:5] D,4z2A,,2 | 
[V:1] F4G4 | 
[V:2] d4G4 | 
[V:3] A2d4c2 | 
[V:4] D2F2E2C2 | 
[V:5] D,4E,4 | 
[V:1] F2A3GG2- | 
[V:2] z2d2B2c2 | 
[V:3] d4G4 | 
[V:4] F4E2C2 | 
[V:5] D,4E,4 | 
[V:1] G2^FEF4 | 
[V:2] d8- | 
[V:3] A8 | 
[V:4] F6D2 | 
[V:5] D,8 | 
[V:1] G8 ||  
[V:2] d8 ||  
[V:3] G8 ||  
[V:4] D8 ||  
[V:5] G,,8 ||  
[V:1]  [K:C] [K:clef=treble][M:2/1]z8 | 
[V:2]  [K:C] [K:clef=treble-8][M:2/1]z8 | 
[V:3]  [K:C] [K:clef=treble-8][M:2/1]G8- | 
[V:4]  [K:C] [K:clef=treble-8][M:2/1]D3CD2E2 | 
[V:5]  [K:C] [K:clef=bass][M:2/1]G,,3A,,B,,2C,2 | 
[V:1] z8 | 
[V:2] z8 | 
[V:3] G8 | 
[V:4] D2E4C2- | 
[V:5] B,,2C,3D,E,2 | 
[V:1] z8 | 
[V:2] c3de2f2 | 
[V:3] A8- | 
[V:4] C2c4d2 | 
[V:5] A,,4z2D,2 | 
[V:1] z8 | 
[V:2] e2f3ga2 | 
[V:3] A8 | 
[V:4] e2d3cA2 | 
[V:5] C,2D,3E,F,2 | 
[V:1] z4G3A | 
[V:2] d2e3def | 
[V:3] G8- | 
[V:4] B8 | 
[V:5] G,2E,2E,4- | 
[V:1] B2c2B2c2- | 
[V:2] g2e2z2e2- | 
[V:3] G8- | 
[V:4] z8 | 
[V:5] E,8 | 
[V:1] cde2dcBA | 
[V:2] e2c2d2g2- | 
[V:3] G8- | 
[V:4] z8 | 
[V:5] C,4B,,2G,,2 | 
[V:1] G2c4B2 | 
[V:2] gfe2d4 | 
[V:3] G8 | 
[V:4] z8 | 
[V:5] C,4G,,4 | 
[V:1] c8- | 
[V:2] c4e4- | 
[V:3] A8 | 
[V:4] e4c4- | 
[V:5] z8 | 
[V:1] c8 | 
[V:2] e4z2e2- | 
[V:3] c8 | 
[V:4] c2A4GF | 
[V:5] A,,3G,,A,,B,,C,2- | 
[V:1] z8 | 
[V:2] e2dcd4 | 
[V:3] G8 | 
[V:4] E4z2D2 | 
[V:5] C,2B,,A,,B,,4 | 
[V:1] c8 | 
[V:2] cdefe2a2- | 
[V:3] A8- | 
[V:4] E2C3DE2 | 
[V:5] A,,8 | 
[V:1] d8 | 
[V:2] agg4^f2 | 
[V:3] A8 | 
[V:4] F2D2D4 | 
[V:5] D,8 | 
[V:1] B6G2 | 
[V:2] g2d4e2 | 
[V:3] G8 | 
[V:4] z2G3FE2 | 
[V:5] G,,8 | 
[V:1] A2B2c2B2- | 
[V:2] f2e4d2 | 
[V:3] z8 | 
[V:4] D2G2A2D2 | 
[V:5] z8 | 
[V:1] BAA4^G2 | 
[V:2] c2A2B4 | 
[V:3] z8 | 
[V:4] E2F2E4 | 
[V:5] z8 | 
[V:1] A8 | 
[V:2] A4d4 | 
[V:3] F8 | 
[V:4] z4A4 | 
[V:5] D,8 | 
[V:1] z8 | 
[V:2] B4c4 | 
[V:3] G4A4- | 
[V:4] G4E4- | 
[V:5] E,4C,4 | 
[V:1] B8 | 
[V:2] d8 | 
[V:3] A2^G^F^G4 | 
[V:4] E2DCD4 | 
[V:5] B,,8 | 
[V:1] c8- | 
[V:2] c2e4f2 | 
[V:3] A8 | 
[V:4] E8 | 
[V:5] A,,4A,4- | 
[V:1] c4B4 | 
[V:2] e2f2g2e2- | 
[V:3] z8 | 
[V:4] z2c2d2B2 | 
[V:5] A,4G,4 | 
[V:1] A8 | 
[V:2] e2dcd4 | 
[V:3] z8 | 
[V:4] cBAGA4 | 
[V:5] F,8 | 
[V:1] G4z2c2- | 
[V:2] e8 | 
[V:3] c8- | 
[V:4] z8 | 
[V:5] E,4C,4 | 
[V:1] cBA3GFE | 
[V:2] A8 | 
[V:3] c8 | 
[V:4] z8 | 
[V:5] F,8 | 
[V:1] D2d3cBA | 
[V:2] d8 | 
[V:3] B8 | 
[V:4] z8 | 
[V:5] G,8 | 
[V:1] cBAGFEF2 | 
[V:2] z4d4 | 
[V:3] A8 | 
[V:4] z8 | 
[V:5] F,4D,4 | 
[V:1] G4E4 | 
[V:2] B4c4 | 
[V:3] G8 | 
[V:4] E8 | 
[V:5] E,4C,4 | 
[V:1] D8 | 
[V:2] d4B4 | 
[V:3] z8 | 
[V:4] G8 | 
[V:5] B,,8 | 
[V:1] C4z4 | 
[V:2] e4c4- | 
[V:3] A8 | 
[V:4] C4E4 | 
[V:5] A,,8 | 
[V:1] c6B2 | 
[V:2] c2d2e4 | 
[V:3] F4E4 | 
[V:4] A6G2 | 
[V:5] z4A,,4 | 
[V:1] A4G4 | 
[V:2] A4B4 | 
[V:3] F4G4- | 
[V:4] F2E2D4- | 
[V:5] D,4B,,4 | 
[V:1] A8 | 
[V:2] c8 | 
[V:3] G2^FE^F4 | 
[V:4] D2CB,C4 | 
[V:5] A,,8 | 
[V:1] D4z2D2 | 
[V:2] B4z2B2 | 
[V:3] G8- | 
[V:4] D3C/D/E2D2 | 
[V:5] G,,3A,,/B,,/C,2B,,2 | 
[V:1] C2D2E4 | 
[V:2] e2d2c4 | 
[V:3] G8- | 
[V:4] z2G2E2C2 | 
[V:5] C,2G,,2C,4 | 
[V:1] D8 ||  
[V:2] B8 ||  
[V:3] G8 ||  
[V:4] D8 ||  
[V:5] G,,8 ||  
[V:1]  [K:C] [K:clef=treble][M:2/1]G8 | 
[V:2]  [K:C] [K:clef=treble-8][M:2/1]d8 | 
[V:3]  [K:C] [K:clef=treble-8][M:2/1]G8- | 
[V:4]  [K:C] [K:clef=treble-8][M:2/1]B8- | 
[V:5]  [K:C] [K:clef=bass][M:2/1]G,8 | 
[V:1] B4c4 | 
[V:2] g8 | 
[V:3] G8 | 
[V:4] B4E4 | 
[V:5] E,8 | 
[V:1] d8 | 
[V:2] f8 | 
[V:3] A8 | 
[V:4] F8 | 
[V:5] D,8 | 
[V:1] e8 | 
[V:2] e4g4- | 
[V:3] c8 | 
[V:4] G8- | 
[V:5] C,8 | 
[V:1] d4B4- | 
[V:2] g2fed2g2- | 
[V:3] d8 | 
[V:4] G8 | 
[V:5] G,8 | 
[V:1] B2AGA4 | 
[V:2] g2^fe^f4 | 
[V:3] c8 | 
[V:4] z8 | 
[V:5] A,8 | 
[V:1] B4z4 | 
[V:2] g8 | 
[V:3] B8 | 
[V:4] d8 | 
[V:5] G,8 | 
[V:1] c6B2 | 
[V:2] z2c3de2 | 
[V:3] A8 | 
[V:4] f4e3d/c/ | 
[V:5] F,4z4 | 
[V:1] A4G2A2- | 
[V:2] fedce2d2- | 
[V:3] z8 | 
[V:4] d2A2cBAG | 
[V:5] F,4E,2F,2- | 
[V:1] AGFEF4 | 
[V:2] d2c3BBA/B/ | 
[V:3] z8 | 
[V:4] F2G4F2 | 
[V:5] F,E,D,C,D,4 | 
[V:1] E8 | 
[V:2] c4z4 | 
[V:3] c6B2 | 
[V:4] G8 | 
[V:5] C,8- | 
[V:1] z8 | 
[V:2] c3de3d | 
[V:3] A4G2A2- | 
[V:4] E8 | 
[V:5] C,8- | 
[V:1] z4G4 | 
[V:2] ecf4e2 | 
[V:3] A2GFG4 | 
[V:4] c8- | 
[V:5] C,8 | 
[V:1] A8- | 
[V:2] f8 | 
[V:3] F8 | 
[V:4] c8 | 
[V:5] z4F,4- | 
[V:1] A8 | 
[V:2] c4f4 | 
[V:3] z8 | 
[V:4] A4d4 | 
[V:5] F,4D,4 | 
[V:1] G4A4- | 
[V:2] e4c4 | 
[V:3] z8 | 
[V:4] B4A4- | 
[V:5] E,4F,4 | 
[V:1] A2G2F3E/D/ | 
[V:2] d8 | 
[V:3] F8 | 
[V:4] A4B4 | 
[V:5] D,8 | 
[V:1] E4B4 | 
[V:2] z4d4 | 
[V:3] G8 | 
[V:4] c4z4 | 
[V:5] C,4B,,4 | 
[V:1] c4A4 | 
[V:2] c4e4- | 
[V:3] A4c4- | 
[V:4] C6D2 | 
[V:5] A,,8 | 
[V:1] G4B4- | 
[V:2] e2f2g4- | 
[V:3] c4d4- | 
[V:4] E4D4 | 
[V:5] z4G,,4- | 
[V:1] B2A2A4- | 
[V:2] g4e4- | 
[V:3] d4c4- | 
[V:4] G4C4 | 
[V:5] G,,4A,,4 | 
[V:1] A4^G4 | 
[V:2] e8 | 
[V:3] c2BAB4 | 
[V:4] z8 | 
[V:5] E,8 | 
[V:1] A8 | 
[V:2] z2c2f3e | 
[V:3] A8- | 
[V:4] z2F3GA2 | 
[V:5] F,3E,D,2C,2 | 
[V:1] z2c3BA2 | 
[V:2] d2c2e4- | 
[V:3] A8 | 
[V:4] F2E2CDEF | 
[V:5] D,2A,,3B,,C,D, | 
[V:1] G2c3BAG | 
[V:2] e4A2c2- | 
[V:3] z8 | 
[V:4] G2A2F2A2- | 
[V:5] E,2A,,2F,4- | 
[V:1] A2G4^F2 | 
[V:2] cBAGA4 | 
[V:3] z8 | 
[V:4] ABc2d4 | 
[V:5] F,2E,2D,4 | 
[V:1] G8- | 
[V:2] G8 | 
[V:3] z4B4- | 
[V:4] B3cd2e2- | 
[V:5] G,6E,2 | 
[V:1] G8 | 
[V:2] z4B4 | 
[V:3] B4G4 | 
[V:4] e2B2e4- | 
[V:5] E,8 | 
[V:1] z4c4- | 
[V:2] c2c3de2 | 
[V:3] A3GF2E2 | 
[V:4] e2c2c4 | 
[V:5] A,,8- | 
[V:1] c4B4- | 
[V:2] c2A2d4 | 
[V:3] F4G4 | 
[V:4] z8 | 
[V:5] A,,4G,,4- | 
[V:1] B2AGA4 | 
[V:2] G2g4f2 | 
[V:3] d8 | 
[V:4] G4D4 | 
[V:5] G,,4D,4 | 
[V:1] G4A4- | 
[V:2] g2e2f3e | 
[V:3] B4A3B | 
[V:4] E2B2c3B | 
[V:5] G,4F,4- | 
[V:1] A2G2G4- | 
[V:2] f2d4c2 | 
[V:3] c2B2G4 | 
[V:4] A2B4E2 | 
[V:5] F,2G,2E,4 | 
[V:1] G2^FEF4 | 
[V:2] d8- | 
[V:3] A8 | 
[V:4] F4D4 | 
[V:5] D,8 | 
[V:1] G8 |]  
[V:2] d8 |]  
[V:3] G8 |]  
[V:4] D8 |]  
[V:5] G,,8 |]  



